fl/KI.svg

<svg viewBox="0 0 21 15" version="1.1" xmlns="http://www.w3.org/2000/svg" height="1em" width="1em">
  <defs>
    <linearGradient x1="50%" y1="0%" x2="50%" y2="100%" id="a">
      <stop stop-color="#FFFFFF" offset="0%"/>
      <stop stop-color="#F0F0F0" offset="100%"/>
    </linearGradient>
    <linearGradient x1="50%" y1="0%" x2="50%" y2="100%" id="b">
      <stop stop-color="#E62B3F" offset="0%"/>
      <stop stop-color="#CA1A2C" offset="100%"/>
    </linearGradient>
    <linearGradient x1="50%" y1="0%" x2="50%" y2="100%" id="c">
      <stop stop-color="#FFDA57" offset="0%"/>
      <stop stop-color="#FCD036" offset="100%"/>
    </linearGradient>
    <linearGradient x1="50%" y1="0%" x2="50%" y2="100%" id="d">
      <stop stop-color="#0752A2" offset="0%"/>
      <stop stop-color="#034285" offset="100%"/>
    </linearGradient>
  </defs>
  <g stroke="none" stroke-width="1" fill="none" fill-rule="evenodd">
    <g>
      <rect fill="url(#a)" x="0" y="0" width="21" height="15"/>
      <rect fill="url(#b)" x="0" y="0" width="21" height="8"/>
      <circle fill="url(#c)" cx="10.5" cy="8.5" r="2.5"/>
      <path d="M10.5,12.0352098 L9.27613486,13.8621035 L8.96612997,11.6851139 L7.07080609,12.8000732 L7.73606171,10.7041672 L5.54467123,10.8863606 L7.05342533,9.28665818 L5,8.5 L7.05342533,7.71334182 L5.54467123,6.11363943 L7.73606171,6.29583277 L7.07080609,4.19992685 L8.96612997,5.31488606 L9.27613486,3.13789648 L10.5,4.96479024 L11.7238651,3.13789648 L12.03387,5.31488606 L13.9291939,4.19992685 L13.2639383,6.29583277 L15.4553288,6.11363943 L13.9465747,7.71334182 L16,8.5 L13.9465747,9.28665818 L15.4553288,10.8863606 L13.2639383,10.7041672 L13.9291939,12.8000732 L12.03387,11.6851139 L11.7238651,13.8621035 L10.5,12.0352098 Z M10.5,12 C12.4329966,12 14,10.4329966 14,8.5 C14,6.56700338 12.4329966,5 10.5,5 C8.56700338,5 7,6.56700338 7,8.5 C7,10.4329966 8.56700338,12 10.5,12 Z" fill="url(#c)"/>
      <path d="M8.85997899,2.40260323 L8.81322551,2.16883603 L9.79504781,2.00519898 C9.79504781,2.00519898 8.47652011,1.69359977 8.04179378,1.53766457 C7.41713118,1.31359973 7.5041292,1.14026032 7.5041292,1.14026032 C7.5041292,1.14026032 9.28903921,1.49091113 10.1690753,1.49091113 C10.3565414,1.49091113 10.7301166,1.95844554 10.7301166,1.95844554 C10.7301166,1.95844554 11.3788461,1.30299147 11.6885622,1.28052065 C13.0954933,1.1784436 14.6106522,1 14.6106522,1 C14.6106522,1 14.1718151,1.29423831 13.9093506,1.37402753 C13.1977851,1.59034343 11.6885622,1.88831538 11.6885622,1.88831538 L11.4781717,2.21558947 L12.9742818,2.21558947 L12.3431103,2.40260323 L12.6703844,2.7065006 C12.6703844,2.7065006 12.3270643,2.52901112 11.8755759,2.61299372 C11.5655119,2.67066958 11.2034989,2.87798459 10.8703769,2.96364452 C10.0521917,3.17403501 9.5612806,2.40260323 9.5612806,2.40260323 L8.85997899,2.40260323 Z" fill="url(#c)"/>
      <rect fill="url(#d)" x="0" y="8" width="21" height="7"/>
      <path d="M23.3218194,12.9333961 L23.7961611,13.09151 L23.4799333,14.0401933 L23.0055916,13.8820794 C22.8977153,13.8461207 22.8977153,13.8461207 22.5368416,13.7258294 L20.4743416,13.0383294 C20.3203476,12.9869981 20.0057048,12.987451 19.8530694,13.0383294 L17.7905694,13.7258294 C17.4308273,13.8457435 16.8942668,13.8449712 16.5368416,13.7258294 L14.4743416,13.0383294 C14.3203476,12.9869981 14.0057048,12.987451 13.8530694,13.0383294 L11.7905694,13.7258294 C11.4308273,13.8457435 10.8942668,13.8449712 10.5368416,13.7258294 L8.47434165,13.0383294 C8.32034758,12.9869981 8.00570482,12.987451 7.85306942,13.0383294 L5.79056942,13.7258294 C5.43082734,13.8457435 4.89426681,13.8449712 4.53684165,13.7258294 L2.47434165,13.0383294 C2.32034758,12.9869981 2.00570482,12.987451 1.85306942,13.0383294 L-0.209430585,13.7258294 L-0.683772234,13.8839433 L-1,12.93526 L-0.525658351,12.7771461 L1.53684165,12.0896461 C1.89426681,11.9705044 2.43082734,11.9697321 2.79056942,12.0896461 L4.85306942,12.7771461 C5.00570482,12.8280246 5.32034758,12.8284775 5.47434165,12.7771461 L7.53684165,12.0896461 C7.89426681,11.9705044 8.43082734,11.9697321 8.79056942,12.0896461 L10.8530694,12.7771461 C11.0057048,12.8280246 11.3203476,12.8284775 11.4743416,12.7771461 L13.5368416,12.0896461 C13.8942668,11.9705044 14.4308273,11.9697321 14.7905694,12.0896461 L16.8530694,12.7771461 C17.0057048,12.8280246 17.3203476,12.8284775 17.4743416,12.7771461 L19.5368416,12.0896461 C19.8942668,11.9705044 20.4308273,11.9697321 20.7905694,12.0896461 L22.8530694,12.7771461 C23.2139431,12.8974374 23.2139431,12.8974374 23.3218194,12.9333961 Z M23.3218194,10.4333961 L23.7961611,10.59151 L23.4799333,11.5401933 L23.0055916,11.3820794 C22.8977153,11.3461207 22.8977153,11.3461207 22.5368416,11.2258294 L20.4743416,10.5383294 C20.3203476,10.4869981 20.0057048,10.487451 19.8530694,10.5383294 L17.7905694,11.2258294 C17.4308273,11.3457435 16.8942668,11.3449712 16.5368416,11.2258294 L14.4743416,10.5383294 C14.3203476,10.4869981 14.0057048,10.487451 13.8530694,10.5383294 L11.7905694,11.2258294 C11.4308273,11.3457435 10.8942668,11.3449712 10.5368416,11.2258294 L8.47434165,10.5383294 C8.32034758,10.4869981 8.00570482,10.487451 7.85306942,10.5383294 L5.79056942,11.2258294 C5.43082734,11.3457435 4.89426681,11.3449712 4.53684165,11.2258294 L2.47434165,10.5383294 C2.32034758,10.4869981 2.00570482,10.487451 1.85306942,10.5383294 L-0.209430585,11.2258294 L-0.683772234,11.3839433 L-1,10.43526 L-0.525658351,10.2771461 L1.53684165,9.58964614 C1.89426681,9.47050442 2.43082734,9.46973211 2.79056942,9.58964614 L4.85306942,10.2771461 C5.00570482,10.3280246 5.32034758,10.3284775 5.47434165,10.2771461 L7.53684165,9.58964614 C7.89426681,9.47050442 8.43082734,9.46973211 8.79056942,9.58964614 L10.8530694,10.2771461 C11.0057048,10.3280246 11.3203476,10.3284775 11.4743416,10.2771461 L13.5368416,9.58964614 C13.8942668,9.47050442 14.4308273,9.46973211 14.7905694,9.58964614 L16.8530694,10.2771461 C17.0057048,10.3280246 17.3203476,10.3284775 17.4743416,10.2771461 L19.5368416,9.58964614 C19.8942668,9.47050442 20.4308273,9.46973211 20.7905694,9.58964614 L22.8530694,10.2771461 C23.2139431,10.3974374 23.2139431,10.3974374 23.3218194,10.4333961 Z M23.3218194,7.93339614 L23.7961611,8.09151002 L23.4799333,9.04019332 L23.0055916,8.88207944 C22.8977153,8.84612067 22.8977153,8.84612067 22.5368416,8.72582944 L20.4743416,8.03832944 C20.3203476,7.98699808 20.0057048,7.98745097 19.8530694,8.03832944 L17.7905694,8.72582944 C17.4308273,8.84574346 16.8942668,8.84497116 16.5368416,8.72582944 L14.4743416,8.03832944 C14.3203476,7.98699808 14.0057048,7.98745097 13.8530694,8.03832944 L11.7905694,8.72582944 C11.4308273,8.84574346 10.8942668,8.84497116 10.5368416,8.72582944 L8.47434165,8.03832944 C8.32034758,7.98699808 8.00570482,7.98745097 7.85306942,8.03832944 L5.79056942,8.72582944 C5.43082734,8.84574346 4.89426681,8.84497116 4.53684165,8.72582944 L2.47434165,8.03832944 C2.32034758,7.98699808 2.00570482,7.98745097 1.85306942,8.03832944 L-0.209430585,8.72582944 L-0.683772234,8.88394332 L-1,7.93526002 L-0.525658351,7.77714614 L1.53684165,7.08964614 C1.89426681,6.97050442 2.43082734,6.96973211 2.79056942,7.08964614 L4.85306942,7.77714614 C5.00570482,7.82802461 5.32034758,7.82847749 5.47434165,7.77714614 L7.53684165,7.08964614 C7.89426681,6.97050442 8.43082734,6.96973211 8.79056942,7.08964614 L10.8530694,7.77714614 C11.0057048,7.82802461 11.3203476,7.82847749 11.4743416,7.77714614 L13.5368416,7.08964614 C13.8942668,6.97050442 14.4308273,6.96973211 14.7905694,7.08964614 L16.8530694,7.77714614 C17.0057048,7.82802461 17.3203476,7.82847749 17.4743416,7.77714614 L19.5368416,7.08964614 C19.8942668,6.97050442 20.4308273,6.96973211 20.7905694,7.08964614 L22.8530694,7.77714614 L23.3218194,7.93339614 Z" fill="#FFFFFF" fill-rule="nonzero"/>
    </g>
  </g>
</svg>

<svg viewBox="0 0 21 15" xmlns="http://www.w3.org/2000/svg" height="1em" width="1em">
  <defs>
    <linearGradient x1="50%" y1="0%" x2="50%" y2="100%" id="a">
      <stop stop-color="#FFF" offset="0%"/>
      <stop stop-color="#F0F0F0" offset="100%"/>
    </linearGradient>
    <linearGradient x1="50%" y1="0%" x2="50%" y2="100%" id="b">
      <stop stop-color="#E62B3F" offset="0%"/>
      <stop stop-color="#CA1A2C" offset="100%"/>
    </linearGradient>
    <linearGradient x1="50%" y1="0%" x2="50%" y2="100%" id="c">
      <stop stop-color="#FFDA57" offset="0%"/>
      <stop stop-color="#FCD036" offset="100%"/>
    </linearGradient>
    <linearGradient x1="50%" y1="0%" x2="50%" y2="100%" id="d">
      <stop stop-color="#0752A2" offset="0%"/>
      <stop stop-color="#034285" offset="100%"/>
    </linearGradient>
  </defs>
  <g fill="none" fill-rule="evenodd">
    <path fill="url(#a)" d="M0 0h21v15H0z"/>
    <path fill="url(#b)" d="M0 0h21v8H0z"/>
    <circle fill="url(#c)" cx="10.5" cy="8.5" r="2.5"/>
    <path d="m10.5 12.035-1.224 1.827-.31-2.177L7.071 12.8l.665-2.096-2.191.182 1.508-1.6L5 8.5l2.053-.787-1.508-1.6 2.191.183L7.071 4.2l1.895 1.115.31-2.177L10.5 4.965l1.224-1.827.31 2.177L13.929 4.2l-.665 2.096 2.191-.182-1.508 1.6L16 8.5l-2.053.787 1.508 1.6-2.191-.183.665 2.096-1.895-1.115-.31 2.177-1.224-1.827Zm0-.035a3.5 3.5 0 1 0 0-7 3.5 3.5 0 0 0 0 7ZM8.86 2.403l-.047-.234.982-.164s-1.318-.311-1.753-.467c-.625-.224-.538-.398-.538-.398s1.785.35 2.665.35c.188 0 .561.468.561.468s.649-.655.959-.677C13.095 1.178 14.61 1 14.61 1s-.44.294-.702.374c-.711.216-2.22.514-2.22.514l-.21.328h1.495l-.63.187.326.304s-.343-.178-.794-.094c-.31.058-.673.265-1.006.35-.818.211-1.309-.56-1.309-.56h-.7Z" fill="url(#c)"/>
    <path fill="url(#d)" d="M0 8h21v7H0z"/>
    <path d="m23.322 12.933.474.159-.316.948-.474-.158-.47-.156-2.062-.688a1.278 1.278 0 0 0-.62 0l-2.063.688c-.36.12-.897.119-1.254 0l-2.063-.688a1.278 1.278 0 0 0-.62 0l-2.063.688c-.36.12-.897.119-1.254 0l-2.063-.688a1.278 1.278 0 0 0-.62 0l-2.063.688c-.36.12-.897.119-1.254 0l-2.063-.688a1.278 1.278 0 0 0-.62 0l-2.063.688-.475.158-.316-.949.474-.158 2.063-.687c.357-.12.894-.12 1.254 0l2.062.687c.153.051.467.051.621 0l2.063-.687c.357-.12.894-.12 1.254 0l2.062.687c.153.051.467.051.621 0l2.063-.687c.357-.12.894-.12 1.254 0l2.062.687c.153.051.467.051.621 0l2.063-.687c.357-.12.894-.12 1.254 0l2.062.687.469.156Zm0-2.5.474.159-.316.948-.474-.158-.47-.156-2.062-.688a1.278 1.278 0 0 0-.62 0l-2.063.688c-.36.12-.897.119-1.254 0l-2.063-.688a1.278 1.278 0 0 0-.62 0l-2.063.688c-.36.12-.897.119-1.254 0l-2.063-.688a1.278 1.278 0 0 0-.62 0l-2.063.688c-.36.12-.897.119-1.254 0l-2.063-.688a1.278 1.278 0 0 0-.62 0l-2.063.688-.475.158-.316-.949.474-.158 2.063-.687c.357-.12.894-.12 1.254 0l2.062.687c.153.051.467.051.621 0l2.063-.687c.357-.12.894-.12 1.254 0l2.062.687c.153.051.467.051.621 0l2.063-.687c.357-.12.894-.12 1.254 0l2.062.687c.153.051.467.051.621 0l2.063-.687c.357-.12.894-.12 1.254 0l2.062.687.469.156Zm0-2.5.474.159-.316.948-.474-.158-.47-.156-2.062-.688a1.278 1.278 0 0 0-.62 0l-2.063.688c-.36.12-.897.119-1.254 0l-2.063-.688a1.278 1.278 0 0 0-.62 0l-2.063.688c-.36.12-.897.119-1.254 0l-2.063-.688a1.278 1.278 0 0 0-.62 0l-2.063.688c-.36.12-.897.119-1.254 0l-2.063-.688a1.278 1.278 0 0 0-.62 0l-2.063.688-.475.158L-1 7.935l.474-.158 2.063-.687c.357-.12.894-.12 1.254 0l2.062.687c.153.051.467.051.621 0l2.063-.687c.357-.12.894-.12 1.254 0l2.062.687c.153.051.467.051.621 0l2.063-.687c.357-.12.894-.12 1.254 0l2.062.687c.153.051.467.051.621 0l2.063-.687c.357-.12.894-.12 1.254 0l2.062.687.469.156Z" fill="#FFF" fill-rule="nonzero"/>
  </g>
</svg>
